assets/business-color/BusinessColor29.svg

<svg xmlns="http://www.w3.org/2000/svg" id="Layer_1" x="0" y="0" version="1.1" viewBox="0 0 256 256" xml:space="preserve"><style>.st1{fill:#fff}.st2{fill:#48386a}.st3{fill:#9feaff}.st5{fill:#ff8584}.st6{fill:#febe7f}</style><path fill="#dbfdff" d="M194.7 126.4c-14.8 0-28 6.3-37.3 16.4-7.2-3.9-15.4-6.2-24.2-6.2-10.4 0-20.1 3.2-28.2 8.6-8-17.4-25.5-29.4-45.9-29.4-27.9 0-50.5 22.6-50.5 50.5s22.6 50.5 50.5 50.5c10.4 0 20.1-3.2 28.2-8.6 8 17.4 25.5 29.4 45.9 29.4 14.8 0 28-6.3 37.3-16.4 7.2 3.9 15.4 6.2 24.2 6.2 27.9 0 50.5-22.6 50.5-50.5s-22.6-50.5-50.5-50.5z"/><path d="M178.4 250.7h13.7l-21.7-49.5h-13.7z" class="st1"/><path d="M192.1 251.7h-13.8c-.4 0-.8-.2-.9-.6l-21.7-49.5c-.1-.3-.1-.7.1-.9s.5-.5.8-.5h13.8c.4 0 .8.2.9.6l21.7 49.5c.1.3.1.7-.1.9s-.4.5-.8.5zm-13.1-2h11.6l-20.8-47.5h-11.6l20.8 47.5z" class="st2"/><path d="M166.1 5.3H216v15.6H49.4V5.3h101z" class="st3"/><path d="M188.8 201.2H47.2v-15.6h166.6v15.6h-17.6z" class="st1"/><path d="M192.8 201.2H51.2v-15.6h166.6v15.6h-17.6z" class="st3"/><path d="M6.6 20.9h244.3v164.6H6.6z" class="st1"/><path d="M250.8 186.6H6.6c-.6 0-1-.4-1-1V20.9c0-.6.4-1 1-1h244.3c.6 0 1 .4 1 1v164.6c-.1.6-.5 1.1-1.1 1.1zm-243.2-2h242.3V21.9H7.6v162.7z" class="st2"/><path fill="#ffffed" d="M68.1 180.1H12V26.4h233.4v153.7H76.6z"/><path d="M245.4 180.6H76.6c-.3 0-.5-.2-.5-.5s.2-.5.5-.5h168.3V26.9H12.5v152.8h55.6c.3 0 .5.2.5.5s-.2.5-.5.5H12c-.3 0-.5-.2-.5-.5V26.4c0-.3.2-.5.5-.5h233.4c.3 0 .5.2.5.5v153.8c0 .2-.2.4-.5.4z" class="st2"/><path d="M20.4 113.7h64.9v12.6H20.4z" class="st5" transform="rotate(90 52.82 119.985)"/><path d="M36.4 92.6h107v12.6h-107z" class="st3" transform="rotate(90 89.871 98.906)"/><path d="M120.6 77.8V66.1h12.6v86.3h-12.6V90.7z" class="st6"/><path d="M115.7 97.8h96.6v12.6h-96.6z" class="st3" transform="rotate(90 163.972 104.113)"/><path d="M194.7 125.4V68.9h12.6v83.5h-12.6v-21z" class="st6"/><path d="M212 21.9H45.4c-.6 0-1-.4-1-1V5.3c0-.6.4-1 1-1h101.1c.6 0 1 .4 1 1s-.4 1-1 1H46.4v13.6H211V6.3h-48.9c-.6 0-1-.4-1-1s.4-1 1-1H212c.6 0 1 .4 1 1v15.6c0 .6-.4 1-1 1z" class="st2"/><path d="M157.8 6.3h-3c-.6 0-1-.4-1-1s.4-1 1-1h3c.6 0 1 .4 1 1s-.4 1-1 1zM213.8 202.2h-17.6c-.6 0-1-.4-1-1s.4-1 1-1h16.6v-13.6H48.2v13.6h140.6c.6 0 1 .4 1 1s-.4 1-1 1H47.2c-.6 0-1-.4-1-1v-15.6c0-.6.4-1 1-1h166.6c.6 0 1 .4 1 1v15.6c0 .5-.4 1-1 1zM212 13.6H45.4c-.3 0-.5-.2-.5-.5s.2-.5.5-.5H212c.3 0 .5.2.5.5s-.2.5-.5.5z" class="st2"/><path d="M213.8 193.9H47.2c-.3 0-.5-.2-.5-.5s.2-.5.5-.5h166.6c.3 0 .5.2.5.5s-.2.5-.5.5z" class="st2"/><path d="M88 238.5l-5.3 12.2H68.9l21.7-49.5h13.8l-13.2 30z" class="st1"/><path d="M82.7 251.7H68.9c-.3 0-.7-.2-.8-.5s-.2-.6-.1-.9l21.7-49.5c.2-.4.5-.6.9-.6h13.7c.3 0 .7.2.8.5s.2.6.1.9L92 231.7c-.2.5-.8.7-1.3.5-.5-.2-.7-.8-.5-1.3l12.6-28.7H91.3l-20.8 47.5H82l5.1-11.5c.2-.5.8-.7 1.3-.5.5.2.7.8.5 1.3l-5.3 12.1c-.2.3-.6.6-.9.6z" class="st2"/><path d="M75.8 251.2h-.2c-.3-.1-.4-.4-.3-.7L97 201c.1-.3.4-.4.7-.3.3.1.4.4.3.7l-21.7 49.5c-.1.2-.3.3-.5.3zM185.2 251.2c-.2 0-.4-.1-.5-.3L163 201.4c-.1-.3 0-.5.3-.7.3-.1.5 0 .7.3l21.7 49.5c.1.3 0 .5-.3.7h-.2zM26.1 170.3c-.6 0-1-.4-1-1V42.4c0-.6.4-1 1-1s1 .4 1 1v126.9c0 .5-.4 1-1 1z" class="st2"/><path d="M32.5 54.2l-1.9.7-4.5-12.3-4.5 12.3-1.8-.7 6.3-17.5zM228.7 170.3H26.1c-.6 0-1-.4-1-1s.4-1 1-1h202.6c.6 0 1 .4 1 1s-.4 1-1 1z" class="st2"/><path d="M216.9 175.6l-.7-1.8 12.3-4.5-12.3-4.5.7-1.9 17.5 6.4zM59.9 158.8H37.8c-.6 0-1-.4-1-1V82.1c0-.6.4-1 1-1h22.1c.6 0 1 .4 1 1v27.7c0 .6-.4 1-1 1s-1-.4-1-1V83.1H38.8v73.7h20.1V118c0-.6.4-1 1-1s1 .4 1 1v39.9c0 .5-.5.9-1 .9z" class="st2"/><path d="M55.1 152.9H42.5c-.3 0-.5-.2-.5-.5V87.6c0-.3.2-.5.5-.5h12.6c.3 0 .5.2.5.5v64.9c0 .2-.2.4-.5.4zm-12.1-1h11.6V88.1H43v63.8zM96.9 158.8H74.8c-.6 0-1-.4-1-1V36.7c0-.6.4-1 1-1h22.1c.6 0 1 .4 1 1v121.1c0 .6-.4 1-1 1zm-21.1-2h20.1V37.7H75.8v119.1z" class="st2"/><path d="M92.2 152.9H79.6c-.3 0-.5-.2-.5-.5v-107c0-.3.2-.5.5-.5h12.6c.3 0 .5.2.5.5v107c0 .3-.2.5-.5.5zm-12.1-1h11.6v-106H80.1v106zM134 158.8h-22.1c-.6 0-1-.4-1-1V59.1c0-.6.4-1 1-1H134c.6 0 1 .4 1 1v98.8c0 .5-.5.9-1 .9zm-21.1-2H133V60.1h-20.1v96.7z" class="st2"/><g><path d="M116.6 87.9c-.3 0-.5-.2-.5-.5v-3.3c0-.3.2-.5.5-.5s.5.2.5.5v3.3c0 .3-.2.5-.5.5z" class="st2"/></g><g><path d="M129.2 152.9h-12.6c-.3 0-.5-.2-.5-.5V90.7c0-.3.2-.5.5-.5s.5.2.5.5v61.2h11.6V66.6h-11.6v11.2c0 .3-.2.5-.5.5s-.5-.2-.5-.5V66.1c0-.3.2-.5.5-.5h12.6c.3 0 .5.2.5.5v86.3c0 .3-.2.5-.5.5z" class="st2"/></g><g><path d="M171 158.8h-22.1c-.6 0-1-.4-1-1V47.9c0-.6.4-1 1-1H171c.6 0 1 .4 1 1v109.9c0 .6-.4 1-1 1zm-21.1-2H170V48.9h-20.1v107.9z" class="st2"/></g><g><path d="M166.3 152.9h-12.6c-.3 0-.5-.2-.5-.5V55.8c0-.3.2-.5.5-.5h12.6c.3 0 .5.2.5.5v96.6c0 .3-.2.5-.5.5zm-12.1-1h11.6V56.3h-11.6v95.6z" class="st2"/></g><g><path d="M208.1 158.8H186c-.6 0-1-.4-1-1V62c0-.6.4-1 1-1h22.1c.6 0 1 .4 1 1v95.8c0 .6-.5 1-1 1zm-21.1-2h20.1V63H187v93.8z" class="st2"/></g><g><path d="M203.3 152.9h-12.6c-.3 0-.5-.2-.5-.5v-21c0-.3.2-.5.5-.5s.5.2.5.5v20.5h11.6V69.4h-11.6v56c0 .3-.2.5-.5.5s-.5-.2-.5-.5V68.9c0-.3.2-.5.5-.5h12.6c.3 0 .5.2.5.5v83.5c0 .3-.2.5-.5.5z" class="st2"/></g><g><path d="M190.7 218.5c-1.6 0-3-1.3-3-3s1.3-3 3-3 3 1.3 3 3-1.4 3-3 3zm0-5c-1.1 0-2 .9-2 2s.9 2 2 2 2-.9 2-2-.9-2-2-2z" class="st2"/></g><g><path d="M228.9 201.7c-1.6 0-3-1.3-3-3s1.3-3 3-3 3 1.3 3 3-1.3 3-3 3zm0-5c-1.1 0-2 .9-2 2s.9 2 2 2 2-.9 2-2-.9-2-2-2z" class="st5"/></g><g><path d="M31.5 204.4h-.1l-1-.3c-.3-.1-.4-.4-.3-.6.1-.3.4-.4.6-.3h.1l-.5-1.8v-.3l.5-1.8-1.8.5h-.3l-1.8-.5.5 1.8v.3l-.5 1.8 1.8-.5c.3-.1.5.1.6.3.1.3-.1.5-.3.6l-2.7.8c-.2 0-.4 0-.5-.1-.1-.1-.2-.3-.1-.5l.8-2.6-.8-2.6c-.1-.2 0-.4.1-.5.1-.1.3-.2.5-.1l2.6.8 2.6-.8c.2-.1.4 0 .5.1s.2.3.1.5l-.8 2.6.8 2.6c.1.2 0 .4-.1.5-.2 0-.3.1-.5.1z" class="st2"/></g><g><path d="M111.9 208.9c-.3 0-.5-.2-.5-.5V206c0-.3.2-.5.5-.5s.5.2.5.5v2.4c0 .3-.2.5-.5.5zM111.9 214.8c-.3 0-.5-.2-.5-.5v-2.4c0-.3.2-.5.5-.5s.5.2.5.5v2.4c0 .2-.2.5-.5.5zM116 210.6h-2.4c-.3 0-.5-.2-.5-.5s.2-.5.5-.5h2.4c.3 0 .5.2.5.5s-.2.5-.5.5zM110.2 210.6h-2.4c-.3 0-.5-.2-.5-.5s.2-.5.5-.5h2.4c.3 0 .5.2.5.5s-.3.5-.5.5z" class="st6"/></g><g><path d="M148.9 222c-.3 0-.5-.2-.5-.5V219c0-.3.2-.5.5-.5s.5.2.5.5v2.4c0 .4-.2.6-.5.6zM148.9 227.8c-.3 0-.5-.2-.5-.5v-2.4c0-.3.2-.5.5-.5s.5.2.5.5v2.4c0 .3-.2.5-.5.5zM153.1 223.7h-2.4c-.3 0-.5-.2-.5-.5s.2-.5.5-.5h2.4c.3 0 .5.2.5.5s-.2.5-.5.5zM147.2 223.7h-2.4c-.3 0-.5-.2-.5-.5s.2-.5.5-.5h2.4c.3 0 .5.2.5.5s-.2.5-.5.5z" class="st3"/></g></svg>

<svg xmlns="http://www.w3.org/2000/svg" id="Layer_1" x="0" y="0" enable-background="new 0 0 256 256" version="1.1" viewBox="0 0 256 256" xml:space="preserve"><style>.st0{fill:#DBFDFF;}
	.st1{fill:#FFFFFF;}
	.st2{fill:#48386A;}
	.st3{fill:#9FEAFF;}
	.st4{fill:#FFFFED;}
	.st5{fill:#FF8584;}
	.st6{fill:#FEBE7F;}</style><path d="M194.7 126.4c-14.8 0-28 6.3-37.3 16.4-7.2-3.9-15.4-6.2-24.2-6.2-10.4 0-20.1 3.2-28.2 8.6-8-17.4-25.5-29.4-45.9-29.4-27.9 0-50.5 22.6-50.5 50.5s22.6 50.5 50.5 50.5c10.4 0 20.1-3.2 28.2-8.6 8 17.4 25.5 29.4 45.9 29.4 14.8 0 28-6.3 37.3-16.4 7.2 3.9 15.4 6.2 24.2 6.2 27.9 0 50.5-22.6 50.5-50.5s-22.6-50.5-50.5-50.5z" class="st0"/><path d="M178.4 250.7 192.1 250.7 170.4 201.2 156.7 201.2z" class="st1"/><path d="M192.1 251.7h-13.8c-.4 0-.8-.2-.9-.6l-21.7-49.5c-.1-.3-.1-.7.1-.9s.5-.5.8-.5h13.8c.4 0 .8.2.9.6l21.7 49.5c.1.3.1.7-.1.9s-.4.5-.8.5zm-13.1-2h11.6l-20.8-47.5h-11.6l20.8 47.5z" class="st2"/><path d="M166.1 5.3 216 5.3 216 20.9 49.4 20.9 49.4 5.3 150.4 5.3z" class="st3"/><path d="M188.8 201.2 47.2 201.2 47.2 185.6 213.8 185.6 213.8 201.2 196.2 201.2z" class="st1"/><path d="M192.8 201.2 51.2 201.2 51.2 185.6 217.8 185.6 217.8 201.2 200.2 201.2z" class="st3"/><path d="M6.6 20.9H250.9V185.5H6.6z" class="st1"/><path d="M250.8 186.6H6.6c-.6 0-1-.4-1-1V20.9c0-.6.4-1 1-1h244.3c.6 0 1 .4 1 1v164.6c-.1.6-.5 1.1-1.1 1.1zm-243.2-2h242.3V21.9H7.6v162.7z" class="st2"/><path d="M68.1 180.1 12 180.1 12 26.4 245.4 26.4 245.4 180.1 76.6 180.1z" class="st4"/><path d="M245.4 180.6H76.6c-.3 0-.5-.2-.5-.5s.2-.5.5-.5h168.3V26.9H12.5v152.8h55.6c.3 0 .5.2.5.5s-.2.5-.5.5H12c-.3 0-.5-.2-.5-.5V26.4c0-.3.2-.5.5-.5h233.4c.3 0 .5.2.5.5v153.8c0 .2-.2.4-.5.4z" class="st2"/><path d="M20.4 113.7H85.30000000000001V126.3H20.4z" class="st5" transform="rotate(90 52.82 119.985)"/><path d="M36.4 92.6H143.4V105.19999999999999H36.4z" class="st3" transform="rotate(90 89.871 98.906)"/><path d="M120.6 77.8 120.6 66.1 133.2 66.1 133.2 152.4 120.6 152.4 120.6 90.7z" class="st6"/><path d="M115.7 97.8H212.3V110.39999999999999H115.7z" class="st3" transform="rotate(90 163.972 104.113)"/><path d="M194.7 125.4 194.7 68.9 207.3 68.9 207.3 152.4 194.7 152.4 194.7 131.4z" class="st6"/><path d="M212 21.9H45.4c-.6 0-1-.4-1-1V5.3c0-.6.4-1 1-1h101.1c.6 0 1 .4 1 1s-.4 1-1 1H46.4v13.6H211V6.3h-48.9c-.6 0-1-.4-1-1s.4-1 1-1H212c.6 0 1 .4 1 1v15.6c0 .6-.4 1-1 1z" class="st2"/><path d="M157.8 6.3h-3c-.6 0-1-.4-1-1s.4-1 1-1h3c.6 0 1 .4 1 1s-.4 1-1 1zM213.8 202.2h-17.6c-.6 0-1-.4-1-1s.4-1 1-1h16.6v-13.6H48.2v13.6h140.6c.6 0 1 .4 1 1s-.4 1-1 1H47.2c-.6 0-1-.4-1-1v-15.6c0-.6.4-1 1-1h166.6c.6 0 1 .4 1 1v15.6c0 .5-.4 1-1 1zM212 13.6H45.4c-.3 0-.5-.2-.5-.5s.2-.5.5-.5H212c.3 0 .5.2.5.5s-.2.5-.5.5z" class="st2"/><path d="M213.8 193.9H47.2c-.3 0-.5-.2-.5-.5s.2-.5.5-.5h166.6c.3 0 .5.2.5.5s-.2.5-.5.5z" class="st2"/><path d="M88 238.5 82.7 250.7 68.9 250.7 90.6 201.2 104.4 201.2 91.2 231.2z" class="st1"/><path d="M82.7 251.7H68.9c-.3 0-.7-.2-.8-.5s-.2-.6-.1-.9l21.7-49.5c.2-.4.5-.6.9-.6h13.7c.3 0 .7.2.8.5s.2.6.1.9L92 231.7c-.2.5-.8.7-1.3.5-.5-.2-.7-.8-.5-1.3l12.6-28.7H91.3l-20.8 47.5H82l5.1-11.5c.2-.5.8-.7 1.3-.5.5.2.7.8.5 1.3l-5.3 12.1c-.2.3-.6.6-.9.6z" class="st2"/><path d="M75.8 251.2h-.2c-.3-.1-.4-.4-.3-.7L97 201c.1-.3.4-.4.7-.3.3.1.4.4.3.7l-21.7 49.5c-.1.2-.3.3-.5.3zM185.2 251.2c-.2 0-.4-.1-.5-.3L163 201.4c-.1-.3 0-.5.3-.7.3-.1.5 0 .7.3l21.7 49.5c.1.3 0 .5-.3.7h-.2zM26.1 170.3c-.6 0-1-.4-1-1V42.4c0-.6.4-1 1-1s1 .4 1 1v126.9c0 .5-.4 1-1 1z" class="st2"/><path d="M32.5 54.2 30.6 54.9 26.1 42.6 21.6 54.9 19.8 54.2 26.1 36.7z" class="st2"/><path d="M228.7 170.3H26.1c-.6 0-1-.4-1-1s.4-1 1-1h202.6c.6 0 1 .4 1 1s-.4 1-1 1z" class="st2"/><path d="M216.9 175.6 216.2 173.8 228.5 169.3 216.2 164.8 216.9 162.9 234.4 169.3z" class="st2"/><path d="M59.9 158.8H37.8c-.6 0-1-.4-1-1V82.1c0-.6.4-1 1-1h22.1c.6 0 1 .4 1 1v27.7c0 .6-.4 1-1 1s-1-.4-1-1V83.1H38.8v73.7h20.1V118c0-.6.4-1 1-1s1 .4 1 1v39.9c0 .5-.5.9-1 .9z" class="st2"/><path d="M55.1 152.9H42.5c-.3 0-.5-.2-.5-.5V87.6c0-.3.2-.5.5-.5h12.6c.3 0 .5.2.5.5v64.9c0 .2-.2.4-.5.4zm-12.1-1h11.6V88.1H43v63.8zM96.9 158.8H74.8c-.6 0-1-.4-1-1V36.7c0-.6.4-1 1-1h22.1c.6 0 1 .4 1 1v121.1c0 .6-.4 1-1 1zm-21.1-2h20.1V37.7H75.8v119.1z" class="st2"/><path d="M92.2 152.9H79.6c-.3 0-.5-.2-.5-.5v-107c0-.3.2-.5.5-.5h12.6c.3 0 .5.2.5.5v107c0 .3-.2.5-.5.5zm-12.1-1h11.6v-106H80.1v106zM134 158.8h-22.1c-.6 0-1-.4-1-1V59.1c0-.6.4-1 1-1H134c.6 0 1 .4 1 1v98.8c0 .5-.5.9-1 .9zm-21.1-2H133V60.1h-20.1v96.7z" class="st2"/><g><path d="M116.6 87.9c-.3 0-.5-.2-.5-.5v-3.3c0-.3.2-.5.5-.5s.5.2.5.5v3.3c0 .3-.2.5-.5.5z" class="st2"/></g><g><path d="M129.2 152.9h-12.6c-.3 0-.5-.2-.5-.5V90.7c0-.3.2-.5.5-.5s.5.2.5.5v61.2h11.6V66.6h-11.6v11.2c0 .3-.2.5-.5.5s-.5-.2-.5-.5V66.1c0-.3.2-.5.5-.5h12.6c.3 0 .5.2.5.5v86.3c0 .3-.2.5-.5.5z" class="st2"/></g><g><path d="M171 158.8h-22.1c-.6 0-1-.4-1-1V47.9c0-.6.4-1 1-1H171c.6 0 1 .4 1 1v109.9c0 .6-.4 1-1 1zm-21.1-2H170V48.9h-20.1v107.9z" class="st2"/></g><g><path d="M166.3 152.9h-12.6c-.3 0-.5-.2-.5-.5V55.8c0-.3.2-.5.5-.5h12.6c.3 0 .5.2.5.5v96.6c0 .3-.2.5-.5.5zm-12.1-1h11.6V56.3h-11.6v95.6z" class="st2"/></g><g><path d="M208.1 158.8H186c-.6 0-1-.4-1-1V62c0-.6.4-1 1-1h22.1c.6 0 1 .4 1 1v95.8c0 .6-.5 1-1 1zm-21.1-2h20.1V63H187v93.8z" class="st2"/></g><g><path d="M203.3 152.9h-12.6c-.3 0-.5-.2-.5-.5v-21c0-.3.2-.5.5-.5s.5.2.5.5v20.5h11.6V69.4h-11.6v56c0 .3-.2.5-.5.5s-.5-.2-.5-.5V68.9c0-.3.2-.5.5-.5h12.6c.3 0 .5.2.5.5v83.5c0 .3-.2.5-.5.5z" class="st2"/></g><g><path d="M190.7 218.5c-1.6 0-3-1.3-3-3s1.3-3 3-3 3 1.3 3 3-1.4 3-3 3zm0-5c-1.1 0-2 .9-2 2s.9 2 2 2 2-.9 2-2-.9-2-2-2z" class="st2"/></g><g><path d="M228.9 201.7c-1.6 0-3-1.3-3-3s1.3-3 3-3 3 1.3 3 3-1.3 3-3 3zm0-5c-1.1 0-2 .9-2 2s.9 2 2 2 2-.9 2-2-.9-2-2-2z" class="st5"/></g><g><path d="M31.5 204.4h-.1l-1-.3c-.3-.1-.4-.4-.3-.6.1-.3.4-.4.6-.3h.1l-.5-1.8v-.3l.5-1.8-1.8.5h-.3l-1.8-.5.5 1.8v.3l-.5 1.8 1.8-.5c.3-.1.5.1.6.3.1.3-.1.5-.3.6l-2.7.8c-.2 0-.4 0-.5-.1-.1-.1-.2-.3-.1-.5l.8-2.6-.8-2.6c-.1-.2 0-.4.1-.5.1-.1.3-.2.5-.1l2.6.8 2.6-.8c.2-.1.4 0 .5.1s.2.3.1.5l-.8 2.6.8 2.6c.1.2 0 .4-.1.5-.2 0-.3.1-.5.1z" class="st2"/></g><g><path d="M111.9 208.9c-.3 0-.5-.2-.5-.5V206c0-.3.2-.5.5-.5s.5.2.5.5v2.4c0 .3-.2.5-.5.5zM111.9 214.8c-.3 0-.5-.2-.5-.5v-2.4c0-.3.2-.5.5-.5s.5.2.5.5v2.4c0 .2-.2.5-.5.5zM116 210.6h-2.4c-.3 0-.5-.2-.5-.5s.2-.5.5-.5h2.4c.3 0 .5.2.5.5s-.2.5-.5.5zM110.2 210.6h-2.4c-.3 0-.5-.2-.5-.5s.2-.5.5-.5h2.4c.3 0 .5.2.5.5s-.3.5-.5.5z" class="st6"/></g><g><path d="M148.9 222c-.3 0-.5-.2-.5-.5V219c0-.3.2-.5.5-.5s.5.2.5.5v2.4c0 .4-.2.6-.5.6zM148.9 227.8c-.3 0-.5-.2-.5-.5v-2.4c0-.3.2-.5.5-.5s.5.2.5.5v2.4c0 .3-.2.5-.5.5zM153.1 223.7h-2.4c-.3 0-.5-.2-.5-.5s.2-.5.5-.5h2.4c.3 0 .5.2.5.5s-.2.5-.5.5zM147.2 223.7h-2.4c-.3 0-.5-.2-.5-.5s.2-.5.5-.5h2.4c.3 0 .5.2.5.5s-.2.5-.5.5z" class="st3"/></g></svg>
